img/avatar4.svg

<?xml version="1.0" encoding="UTF-8"?>
<svg width="152px" height="200px" viewBox="0 0 152 200" version="1.1" xmlns="http://www.w3.org/2000/svg" xmlns:xlink="http://www.w3.org/1999/xlink">
    <!-- Generator: Sketch 48.2 (47327) - http://www.bohemiancoding.com/sketch -->
    <title>avataaar</title>
    <desc>Created with Sketch.</desc>
    <defs>
        <path d="M57.5757576,103.060244 C45.1605961,97.1624441 36.0644246,85.4121705 33.8524518,71.3746319 C29.3002761,70.8785674 25.7575758,67.0218359 25.7575758,62.3376623 L25.7575758,53.3766234 C25.7575758,48.8720835 29.0337677,45.1327393 33.3333333,44.4114089 L33.3333333,42.4242424 C33.3333333,18.9939803 52.3273136,4.30406933e-15 75.7575758,0 C99.1878379,-4.30406933e-15 118.181818,18.9939803 118.181818,42.4242424 L118.181818,44.4114089 C122.481384,45.1327393 125.757576,48.8720835 125.757576,53.3766234 L125.757576,62.3376623 C125.757576,67.0218359 122.214875,70.8785674 117.6627,71.3746319 C115.450727,85.4121705 106.354555,97.1624441 93.9393939,103.060244 L93.9393939,116.429241 C125.76356,116.58078 151.515152,142.425944 151.515152,174.285714 L0,174.285714 C-3.90169656e-15,142.425944 25.7515919,116.58078 57.5757576,116.429241 L57.5757576,103.060244 Z" id="path-1"></path>
        <path d="M137.765886,24.4490495 C159.944906,32.6419073 175.757576,53.9743302 175.757576,79 L24.2424242,79 C24.2424242,53.6742101 40.4366344,32.1307807 63.0347899,24.1599766 C62.9315441,24.8002424 62.8787879,25.4487445 62.8787879,26.1042035 C62.8787879,37.7971878 79.6681098,47.2762245 100.378788,47.2762245 C121.089466,47.2762245 137.878788,37.7971878 137.878788,26.1042035 C137.878788,25.5471999 137.84069,24.9952201 137.765886,24.4490495 Z" id="path-3"></path>
        <path d="M22.0185185,10.9970356 C23.0890976,17.7766478 31.1768419,23.25 41,23.25 C50.8461844,23.25 58.9535463,17.7427803 59.9814815,10.3843874 C60.0583256,10.1029934 59.8108524,9.15909091 58.3309179,9.15909091 C43.1551012,9.15909091 31.6911586,9.15909091 23.6690821,9.15909091 C22.3095534,9.15909091 21.919975,10.0330562 22.0185185,10.9970356 Z" id="path-5"></path>
        <rect id="path-7" x="0" y="0" width="200" height="200"></rect>
        <path d="M87.2850473,20.240887 C84.9359141,18.1120525 83.5338346,15.4232075 83.5338346,12.5 C83.5338346,5.59644063 91.3537032,0 101,0 C110.646297,0 118.466165,5.59644063 118.466165,12.5 C118.466165,15.4054259 117.081092,18.0793318 114.757716,20.2019763 C118.799049,21.2053544 122.921175,22.7514669 127.054099,25.00437 C142.384663,33.3612322 145.184514,52.2224763 145.73006,59.3994949 C145.970984,62.5787213 145.613451,65.7916167 144.856262,68.8841629 C144.410373,70.7046843 143.59565,70.7502928 143.23709,68.7148621 C142.294199,63.3624242 143.714571,57.2962483 140.62751,52.3576304 C138.019728,48.1864778 129.276342,28.6685321 101,29.7648089 C72.7236576,30.8610857 69.2483114,43.2289957 64.3874554,49.1772102 C62.4235925,51.5806136 61.1406347,54.6691004 60.1327616,57.517605 C59.4274559,59.511009 59.0311388,61.5624386 58.8793414,63.653507 C58.7981773,64.771991 58.7352494,65.9067126 58.7938109,67.0268682 C58.8385025,67.880536 59.3003159,68.9887522 59.1742034,69.7920357 C58.7950951,72.2049907 57.4142781,69.2187052 57.1582002,68.3573961 C56.4600863,66.0108243 56.1107725,63.4951904 56.2129981,61.0581179 C56.4734424,54.851057 58.1665871,48.2163264 61.0227413,42.6057584 C66.8398439,31.1795034 73.619761,23.4556828 85.0806489,20.7356933 C85.8010421,20.5647239 86.5361373,20.3990953 87.2850473,20.240887 Z" id="path-9"></path>
    </defs>
    <g id="Page-5" stroke="none" stroke-width="1" fill="none" fill-rule="evenodd">
        <g id="Avataaar/Default" transform="translate(-24.000000, 0.000000)">
            <g id="Body" stroke-width="1" fill-rule="evenodd" transform="translate(24.242424, 25.714286)">
                <mask id="mask-2" fill="white">
                    <use xlink:href="#path-1"></use>
                </mask>
                <use fill="#D0C6AC" xlink:href="#path-1"></use>
                <g id="Skin/👶🏽-03-Brown" mask="url(#mask-2)" fill="#D08B5B">
                    <g transform="translate(-24.242424, 0.000000)" id="Color">
                        <rect x="0" y="0" width="200" height="174"></rect>
                    </g>
                </g>
                <path d="M118.181818,64.7186147 L118.181818,70.4329004 C118.181818,93.8631625 99.1878379,112.857143 75.7575758,112.857143 C52.3273136,112.857143 33.3333333,93.8631625 33.3333333,70.4329004 L33.3333333,64.7186147 C33.3333333,88.1488768 52.3273136,107.142857 75.7575758,107.142857 C99.1878379,107.142857 118.181818,88.1488768 118.181818,64.7186147 Z" id="Neck-Shadow" fill-opacity="0.100000001" fill="#000000" mask="url(#mask-2)"></path>
            </g>
            <g id="Clothing/Shirt-Scoop-Neck" transform="translate(0.000000, 121.428571)">
                <mask id="mask-4" fill="white">
                    <use xlink:href="#path-3"></use>
                </mask>
                <use id="Clothes" fill="#E6E6E6" fill-rule="evenodd" xlink:href="#path-3"></use>
                <g id="Color/Palette/White" mask="url(#mask-4)" fill="#FFFFFF" fill-rule="evenodd">
                    <rect id="🖍Color" x="0" y="0" width="200" height="79"></rect>
                </g>
            </g>
            <g id="Face" stroke-width="1" fill-rule="evenodd" transform="translate(57.575758, 58.571429)">
                <g id="Mouth/Tongue" transform="translate(1.515152, 37.142857)">
                    <mask id="mask-6" fill="white">
                        <use xlink:href="#path-5"></use>
                    </mask>
                    <use id="Mouth" fill-opacity="0.699999988" fill="#000000" fill-rule="evenodd" xlink:href="#path-5"></use>
                    <rect id="Teeth" fill="#FFFFFF" fill-rule="evenodd" mask="url(#mask-6)" x="29.6111111" y="1.40909091" width="23.537037" height="11.2727273" rx="5"></rect>
                    <path d="M50.0410251,16.9732753 C50.0867207,17.1410967 50.1111111,17.3177 50.1111111,17.5 L50.1111111,23.25 C50.1111111,27.5302068 46.6413179,31 42.3611111,31 L40.3981481,31 C36.1179413,31 32.6481481,27.5302068 32.6481481,23.25 L32.6481481,17.5 C32.6481481,17.3177 32.6725386,17.1410967 32.7182341,16.9732753 C32.6721492,16.8378959 32.6481481,16.6987575 32.6481481,16.5568182 C32.6481481,15.1949342 34.8577058,14.0909091 37.5833333,14.0909091 C39.109777,14.0909091 40.4743616,14.4371732 41.3796296,14.9810742 C42.2848977,14.4371732 43.6494823,14.0909091 45.1759259,14.0909091 C47.9015534,14.0909091 50.1111111,15.1949342 50.1111111,16.5568182 C50.1111111,16.6987575 50.08711,16.8378959 50.0410251,16.9732753 Z" id="Tongue" fill="#FF4F6D" fill-rule="evenodd"></path>
                </g>
                <g id="Nose/Default" transform="translate(21.212121, 28.571429)" fill="#000000" fill-opacity="0.16">
                    <path d="M12,5.66666667 C12,8.79628025 16.0294373,11.3333333 21,11.3333333 C25.9705627,11.3333333 30,8.79628025 30,5.66666667" id="Nose"></path>
                </g>
                <g id="Eyes/Wink-Wacky-😜" transform="translate(0.000000, 5.714286)">
                    <ellipse id="Cornea?-I-don't-know" fill="#FFFFFF" cx="62.2321429" cy="15.5" rx="9.10714286" ry="8.45454545"></ellipse>
                    <ellipse id="Eye" fill-opacity="0.699999988" fill="#000000" cx="62.2321429" cy="15.5" rx="4.55357143" ry="4.22727273"></ellipse>
                    <path d="M12.2644128,17.9287877 C13.6657809,15.2523579 16.8212135,13.3863636 20.489235,13.3863636 C24.1443081,13.3863636 27.2904049,15.2392069 28.6991509,17.9004739 C29.1176308,18.6910257 28.5221323,19.3379985 27.9214428,18.8585843 C26.0612325,17.3739383 23.4195615,16.44676 20.489235,16.44676 C17.6505582,16.44676 15.0827631,17.3168479 13.2338467,18.720929 C12.5578339,19.2342983 11.8545411,18.711589 12.2644128,17.9287877 Z" id="Winky-Doodle" fill-opacity="0.599999964" fill="#000000"></path>
                </g>
                <g id="Eyebrow/Outline/Default" fill="#000000" fill-opacity="0.599999964">
                    <g id="I-Browse" transform="translate(9.107143, 4.250000)">
                        <path d="M2.75509693,7.90399186 C5.72623371,4.00198893 13.8716355,1.81392636 20.8880114,3.42208616 C21.7021126,3.60867889 22.5241398,3.14398009 22.7240606,2.38415233 C22.9239814,1.62432457 22.4260898,0.857099171 21.6119886,0.670506435 C13.4636686,-1.19709601 4.03150418,1.33662381 0.28061736,6.26267481 C-0.204993913,6.90042956 -0.0447285115,7.78485328 0.638580152,8.23809046 C1.32188882,8.69132765 2.26948565,8.54174661 2.75509693,7.90399186 Z" id="Eyebrow" fill-rule="nonzero"></path>
                        <path d="M46.7729541,7.90399186 C49.7440909,4.00198893 57.8894926,1.81392636 64.9058685,3.42208616 C65.7199697,3.60867889 66.5419969,3.14398009 66.7419177,2.38415233 C66.9418385,1.62432457 66.4439469,0.857099171 65.6298458,0.670506435 C57.4815257,-1.19709601 48.0493613,1.33662381 44.2984745,6.26267481 C43.8128632,6.90042956 43.9731286,7.78485328 44.6564373,8.23809046 C45.339746,8.69132765 46.2873428,8.54174661 46.7729541,7.90399186 Z" id="Eyebrow" fill-rule="nonzero" transform="translate(55.401902, 4.277765) scale(-1, 1) translate(-55.401902, -4.277765) "></path>
                    </g>
                </g>
            </g>
            <g id="Top" stroke-width="1" fill-rule="evenodd">
                <mask id="mask-8" fill="white">
                    <use xlink:href="#path-7"></use>
                </mask>
                <g id="Mask"></g>
                <g id="Top/Long-Hair/Bun" mask="url(#mask-8)">
                    <g transform="translate(-0.757576, 0.000000)">
                        <mask id="mask-10" fill="white">
                            <use xlink:href="#path-9"></use>
                        </mask>
                        <use id="Short-Hair" stroke="none" fill="#28354B" fill-rule="evenodd" xlink:href="#path-9"></use>
                        <g id="Color/Hair/Brown" stroke="none" fill="none" mask="url(#mask-10)" fill-rule="evenodd">
                            <g transform="translate(0.759398, 0.000000)" fill="#724133" id="Color">
                                <rect x="0" y="0" width="200" height="200"></rect>
                            </g>
                        </g>
                        <g id="Top/_Resources/Blank" stroke="none" fill="none" mask="url(#mask-10)">
                            <g transform="translate(47.082707, 60.714286)"></g>
                        </g>
                    </g>
                </g>
            </g>
        </g>
    </g>
</svg>

<?xml version="1.0" encoding="UTF-8"?>
<svg version="1.1" viewBox="0 0 152 200" xmlns="http://www.w3.org/2000/svg" xmlns:xlink="http://www.w3.org/1999/xlink">
<title>avataaar</title>
<desc>Created with Sketch.</desc>
<defs>
<path id="d" d="m57.576 103.06c-12.415-5.8978-21.511-17.648-23.723-31.686-4.5522-0.49606-8.0949-4.3528-8.0949-9.037v-8.961c0-4.5045 3.2762-8.2439 7.5758-8.9652v-1.9872c0-23.43 18.994-42.424 42.424-42.424 23.43-4.3041e-15 42.424 18.994 42.424 42.424v1.9872c4.2996 0.72133 7.5758 4.4607 7.5758 8.9652v8.961c0 4.6842-3.5427 8.5409-8.0949 9.037-2.212 14.038-11.308 25.788-23.723 31.686v13.369c31.824 0.15154 57.576 25.997 57.576 57.856h-151.52c-3.9017e-15 -31.86 25.752-57.705 57.576-57.856v-13.369z"/>
<path id="c" d="m137.77 24.449c22.179 8.1929 37.992 29.525 37.992 54.551h-151.52c0-25.326 16.194-46.869 38.792-54.84-0.10325 0.64027-0.156 1.2888-0.156 1.9442 0 11.693 16.789 21.172 37.5 21.172 20.711 0 37.5-9.479 37.5-21.172 0-0.557-0.038098-1.109-0.1129-1.6552z"/>
<path id="b" d="m22.019 10.997c1.0706 6.7796 9.1583 12.253 18.981 12.253 9.8462 0 17.954-5.5072 18.981-12.866 0.076844-0.28139-0.17063-1.2253-1.6506-1.2253h-34.662c-1.3595 0-1.7491 0.87397-1.6506 1.8379z"/>
<rect id="g" width="200" height="200"/>
<path id="a" d="m87.285 20.241c-2.3491-2.1288-3.7512-4.8177-3.7512-7.7409 0-6.9036 7.8199-12.5 17.466-12.5 9.6463 0 17.466 5.5964 17.466 12.5 0 2.9054-1.3851 5.5793-3.7084 7.702 4.0413 1.0034 8.1635 2.5495 12.296 4.8024 15.331 8.3569 18.13 27.218 18.676 34.395 0.24092 3.1792-0.11661 6.3921-0.8738 9.4847-0.44589 1.8205-1.2606 1.8661-1.6192-0.1693-0.94289-5.3524 0.47748-11.419-2.6096-16.357-2.6078-4.1712-11.351-23.689-39.628-22.593-28.276 1.0963-31.752 13.464-36.613 19.412-1.9639 2.4034-3.2468 5.4919-4.2547 8.3404-0.70531 1.9934-1.1016 4.0448-1.2534 6.1359-0.081164 1.1185-0.14409 2.2532-0.08553 3.3734 0.044692 0.85367 0.5065 1.9619 0.38039 2.7652-0.37911 2.413-1.7599-0.57333-2.016-1.4346-0.69811-2.3466-1.0474-4.8622-0.9452-7.2993 0.26044-6.2071 1.9536-12.842 4.8097-18.452 5.8171-11.426 12.597-19.15 24.058-21.87 0.72039-0.17097 1.4555-0.3366 2.2044-0.49481z"/>
</defs>
<g fill="none" fill-rule="evenodd">
<g transform="translate(-24)" fill-rule="evenodd">
<g transform="translate(24.242 25.714)">
<mask id="e" fill="white">
<use xlink:href="#d"/>
</mask>
<use fill="#D0C6AC" xlink:href="#d"/>
<g fill="#D08B5B" mask="url(#e)">
<g transform="translate(-24.242)">
<rect width="200" height="174"/>
</g>
</g>
<path d="m118.18 64.719v5.7143c0 23.43-18.994 42.424-42.424 42.424-23.43 0-42.424-18.994-42.424-42.424v-5.7143c0 23.43 18.994 42.424 42.424 42.424 23.43 0 42.424-18.994 42.424-42.424z" fill="#000" fill-opacity=".1" mask="url(#e)"/>
</g>
<g transform="translate(0 121.43)">
<mask id="j" fill="white">
<use xlink:href="#c"/>
</mask>
<use fill="#E6E6E6" xlink:href="#c"/>
<g fill="#fff" mask="url(#j)">
<rect width="200" height="79"/>
</g>
</g>
<g transform="translate(57.576 58.571)">
<g transform="translate(1.5152 37.143)" fill-rule="evenodd">
<mask id="i" fill="white">
<use xlink:href="#b"/>
</mask>
<use fill="#000000" fill-opacity=".7" xlink:href="#b"/>
<rect x="29.611" y="1.4091" width="23.537" height="11.273" rx="5" fill="#fff" mask="url(#i)"/>
<path d="m50.041 16.973c0.045696 0.16782 0.070086 0.34442 0.070086 0.52672v5.75c0 4.2802-3.4698 7.75-7.75 7.75h-1.963c-4.2802 0-7.75-3.4698-7.75-7.75v-5.75c0-0.1823 0.02439-0.3589 0.070086-0.52672-0.046085-0.13538-0.070086-0.27452-0.070086-0.41646 0-1.3619 2.2096-2.4659 4.9352-2.4659 1.5264 0 2.891 0.34626 3.7963 0.89017 0.90527-0.5439 2.2699-0.89017 3.7963-0.89017 2.7256 0 4.9352 1.104 4.9352 2.4659 0 0.14194-0.024001 0.28108-0.070086 0.41646z" fill="#FF4F6D"/>
</g>
<g transform="translate(21.212 28.571)" fill="#000" fill-opacity=".16">
<path d="m12 5.6667c0 3.1296 4.0294 5.6667 9 5.6667s9-2.5371 9-5.6667"/>
</g>
<g transform="translate(0 5.7143)">
<ellipse cx="62.232" cy="15.5" rx="9.1071" ry="8.4545" fill="#fff"/>
<ellipse cx="62.232" cy="15.5" rx="4.5536" ry="4.2273" fill="#000" fill-opacity=".7"/>
<path d="m12.264 17.929c1.4014-2.6764 4.5568-4.5424 8.2248-4.5424 3.6551 0 6.8012 1.8528 8.2099 4.5141 0.41848 0.79055-0.17702 1.4375-0.77771 0.95811-1.8602-1.4846-4.5019-2.4118-7.4322-2.4118-2.8387 0-5.4065 0.87009-7.2554 2.2742-0.67601 0.51337-1.3793-0.00934-0.96943-0.79214z" fill="#000" fill-opacity=".6"/>
</g>
<g fill="#000" fill-opacity=".6">
<g transform="translate(9.1071 4.25)" fill-rule="nonzero">
<path d="m2.7551 7.904c2.9711-3.902 11.117-6.0901 18.133-4.4819 0.8141 0.18659 1.6361-0.27811 1.836-1.0379s-0.29797-1.5271-1.1121-1.7136c-8.1483-1.8676-17.58 0.66612-21.331 5.5922-0.48561 0.63775-0.32535 1.5222 0.35796 1.9754 0.68331 0.45324 1.6309 0.30366 2.1165-0.3341z"/>
<path transform="translate(55.402 4.2778) scale(-1 1) translate(-55.402 -4.2778)" d="m46.773 7.904c2.9711-3.902 11.117-6.0901 18.133-4.4819 0.8141 0.18659 1.6361-0.27811 1.836-1.0379s-0.29797-1.5271-1.1121-1.7136c-8.1483-1.8676-17.58 0.66612-21.331 5.5922-0.48561 0.63775-0.32535 1.5222 0.35796 1.9754 0.68331 0.45324 1.6309 0.30366 2.1165-0.3341z"/>
</g>
</g>
</g>
<g>
<mask id="h" fill="white">
<use xlink:href="#g"/>
</mask>
<g mask="url(#h)">
<g transform="translate(-.75758)">
<mask id="f" fill="white">
<use xlink:href="#a"/>
</mask>
<use fill="#28354B" fill-rule="evenodd" xlink:href="#a"/>
<g fill="none" fill-rule="evenodd" mask="url(#f)">
<g transform="translate(.7594)" fill="#724133">
<rect width="200" height="200"/>
</g>
</g>
<g fill="none" mask="url(#f)"></g>
</g>
</g>
</g>
</g>
</g>
</svg>
